docs/inc/icons/keyboard.svg

<svg height="16" viewBox="0 0 16 16" width="16" xmlns="http://www.w3.org/2000/svg"><path d="m10 5h-1v-1h1zm-7 1h-1v1h1zm5-2h-1v1h1zm-4 0h-2v1h2zm8 7h2v-1h-2zm-4-4h1v-1h-1zm-4 3h-2v1h2zm8-6h-1v1h1zm2 0h-1v1h1zm-2 5h2v-3h-2zm4-6v9c0 .55-.45 1-1 1h-14c-.55 0-1-.45-1-1v-9c0-.55.45-1 1-1h14c.55 0 1 .45 1 1zm-1 0h-14v9h14zm-9 4h1v-1h-1zm0-3h-1v1h1zm-2 3h1v-1h-1zm1 4h6v-1h-6zm5-4h1v-1h-1zm-7 1h-1v1h1zm5 0v1h1v-1zm-2 0v1h1v-1zm-1 0h-1v1h1zm5 1h1v-1h-1z" fill-rule="evenodd"/></svg>

<svg xmlns="http://www.w3.org/2000/svg" width="16" height="16" viewBox="0 0 16 16"><path fill-rule="evenodd" d="M10 5H9V4h1v1zM3 6H2v1h1V6zm5-2H7v1h1V4zM4 4H2v1h2V4zm8 7h2v-1h-2v1zM8 7h1V6H8v1zm-4 3H2v1h2v-1zm8-6h-1v1h1V4zm2 0h-1v1h1V4zm-2 5h2V6h-2v3zm4-6v9c0 .55-.45 1-1 1H1c-.55 0-1-.45-1-1V3c0-.55.45-1 1-1h14c.55 0 1 .45 1 1zm-1 0H1v9h14V3zM6 7h1V6H6v1zm0-3H5v1h1V4zM4 7h1V6H4v1zm1 4h6v-1H5v1zm5-4h1V6h-1v1zM3 8H2v1h1V8zm5 0v1h1V8H8zM6 8v1h1V8H6zM5 8H4v1h1V8zm5 1h1V8h-1v1z"/></svg>
